source/svgs/bowtie/uEA6F-timeline-progress.svg

<svg xmlns="http://www.w3.org/2000/svg" viewBox="0 0 448 448" enable-background="new 0 0 448 448"><path d="M32 416h-32v-384h448v32h-416v352zm128-320h-96v32h96v-32zm256 64h-256v32h256v-32zm-64 64h-128v32h128v-32zm-96 64h-160v32h160v-32zm96 64h-160v32h160v-32z"/></svg>

<svg xmlns="http://www.w3.org/2000/svg" viewBox="0 0 448 448"><path d="M32 416H0V32h448v32H32v352zM160 96H64v32h96V96zm256 64H160v32h256v-32zm-64 64H224v32h128v-32zm-96 64H96v32h160v-32zm96 64H192v32h160v-32z"/></svg>
